X:1
T:Title
%%score { 1 | 2 }
L:1/8
M:3/4
K:Ab
V:1 treble nm="Grand Piano"
V:2 bass 
V:1
 z2 z2[Q:1/4=100] [CA]2 | [Ec]3 [Fd] [Ec]>[DB] | [CA]4 [EA]2 | [FA]3 [=EG] [FA][DF] | %4
[M:2/4] [CE]4 |[M:1/4] [CA]2 |[M:3/4] [EB]3 [EG] [EA]B | c>B [CA]2 [Ec]2 | [EB]3 [EG] [=DA][DF] | %9
[M:2/4] E4 |[M:1/4] E2 |[M:3/4] B3 c B>E | [Ec]4 E2 | c3 e dc |[M:2/4] B4 |[M:1/4] E2 | %16
[M:3/4] [Ec]3 [Fd] [Ec][EA] | [FB]>[FA] [DF]2 [DA]2 | G3 A cB |[M:2/4] [CA]4 |] %20
V:2
 z2 z2 [A,,E,]2 | [A,,A,]3 [A,,A,] [A,,A,]>[A,,E,] | [A,,E,]4 [C,A,]2 | %3
 [D,A,]3 [D,A,] [D,A,][D,A,] |[M:2/4] [A,,A,]4 |[M:1/4] [A,,A,]2 | %6
[M:3/4] [E,G,]3 [D,B,] [C,A,][E,G,E] | [A,E]>[E,G,D] [A,,A,]2 [A,,A,]2 | %8
 [B,,G,]3 [B,,B,] [B,,F,][B,,A,] |[M:2/4] [E,G,]4 |[M:1/4] [E,G,]2 | %11
[M:3/4] [E,G,E]3 [E,A,E] [E,G,E]>[E,G,] | [A,,A,]4 [A,C]2 | [A,E]3 [A,CE] [G,B,E][A,E] | %14
[M:2/4] [E,G,E]4 |[M:1/4] [E,G,]2 |[M:3/4] [A,,A,]3 [A,,A,] [A,,A,][C,A,] | %17
 [D,A,]>[D,A,] [D,A,]2 [B,,B,]2 | [E,B,D]3 [E,A,C] [E,A,E][E,G,D] |[M:2/4] [A,,A,]4 |] %20

